icons/bed-single.svg

<svg width="24" height="24" viewBox="0 0 24 24" fill="none" xmlns="http://www.w3.org/2000/svg">
<path d="M4.0091 18H19.9909M4.0091 18C2.90579 18 2.01138 17.1046 2.01138 16C2.01138 13.6785 1.64949 10 5.00796 10H18.992C22.3505 10 21.9886 13.6785 21.9886 16C21.9886 17.1046 21.0942 18 19.9909 18M4.0091 18V21M19.9909 18V21M4.0091 10C4.0091 7.27461 4.45851 4 8.00455 4H15.9955C19.5415 4 19.9909 7.27461 19.9909 10" stroke="black" stroke-width="2" stroke-linecap="round" stroke-linejoin="round"/>
</svg>

<svg xmlns="http://www.w3.org/2000/svg" width="24" height="24" viewBox="0 0 24 24" fill="none" stroke="currentColor" stroke-width="2" stroke-linecap="round" stroke-linejoin="round">
<path d="M4.01 18h15.98M4.01 18a2 2 0 0 1-1.999-2c0-2.322-.362-6 2.997-6h13.984c3.358 0 2.997 3.678 2.997 6 0 1.105-.895 2-1.998 2M4.009 18v3m15.982-3v3M4.009 10c0-2.725.45-6 3.996-6h7.99c3.547 0 3.996 3.275 3.996 6"/>
</svg>
